X:1
T:Title
%%score 1 2 3 4
L:1/8
M:2/2
K:C
V:1 treble nm="Part_1"
V:2 treble-8 nm="Part_2"
V:3 treble-8 nm="Part_3"
V:4 bass nm="Part_4"
V:1
 E8- | E8 | F8- | F8 | D8 | G8 | A8 | F4 D4 | E8 | D4 G4- | G2 F2 F4- | F2 E2 E4- | E2 D2 D2 C2 | %13
 E8 | z8 | z8 | z8 | G8 | A6 B2 | c8 | A8 | G6 A2 | _B4 A4- | A4 F4- | F2 D2 E4 | G4 F4 | D8 | %27
 ^C6 B,2 | D8 | z4 E4- | E2 D2 F4- | F4 E4 | !fermata!F8- | F8 | z8 | z8 | z8 | F8 | E8 | F8 | %40
 D4 G4- | G2 F2 E2 D2 | E2 F2 D4- | D4 ^C4 | D8 | F8 | A8 | G8 | E4 F4- | F2 E2 D4- | D4 ^C4 | D8 | %52
 F8 | G8 | A8 | D8 | C4 F4- | F2 E2 F4 | G4 D4 | C4 F4- | F2 E2 E4- | E2 D2 D2 C2 | E8 || G8 | %64
 A6 B2 | c8 | c6 B2 | G6 E2 | F6 G2 | A4 _B4- | B2 A2 A4- | A4 ^G4 | A8- | A8 | z8 | F8 | E8 | %77
 D4 G4- | G8 | G4 ^F4 | G8 | z4 G4- | G4 F4- | F4 E4 | A8 | G6 E2 | F6 E2 | E2 D2 D4- | D4 ^C4 | %89
 D8 | z8 | F8 | D8 | E8 | F4 G4- | G2 F2 D4- | D4 C4 | G4 A4 | G2 F2 F4- | F4 D4 | E8 | z4 F4- | %102
 F4 D4- | D4 F4- | F4 E4 | D6 C2 | D4 C4- | C4 B,4 | C8 | z4 D4- | D2 E2 F2 G2 | A8 | D4 G4 | %113
 F2 E2 E4- | E2 D2 D2 C2 | E8 |] %116
V:2
 B8 | c8 | A4 d4 | c4 d2 e2 | f4 d4 | e8 | f4 (3:2:2d4 c2 | A8 | z8 | A4 G4 | B2 c2 d4- | %11
 d2 c2 B2 c2 | A6 B2 | G4 c4- | c8 | c4 B4 | c6 d2 | e8 | (3f8 e2 d2 | c8 | f6 e2 | c2 B2 c4 | d8 | %23
 c4 d4- | d4 B4 | c4 A4 | A8- | A8 | z4 A4 | E8 | z4 c4 | !fermata!c8- | c8 | c8 | A8 | c4 B4 | %36
 A4 d4- | d4 A2 B2 | c8 | A8 | B2 c2 d2 cd | e4 c4- | c4 A4 | A8 | F4 A4 | F8 | D8 | G4 E2 F2 | %48
 G4 F4- | F4 A4 | A8 | A4 d4 | c4 A4 | B4 c4 | d8 | D8 | E4 F2 G2 | A4 B4 | c2 B2 A4 | G4 A2 B2 | %60
 c8 | A8 | B8 || e8 | f8 | c6 B2 | A2 G2 G4- | G4 z4 | d8 | e2 f2 g4- | g2 f2 e2 d2 | e8 | c4 d4 | %73
 f2 e2 d4- | d4 c4 | d4 A2 B2 | c8 | B8 | d4 e4 | d8 | B4 c4- | c2 B2 G4 | B2 c2 d4- | d4 c4 | %84
 e4 d4- | d4 c4 | d8 | c4 A4 | A8- | A8 | D8 | (3:2:2d8 c4 | A8 | c8 | d4 B4 | c4 A4 | A8 | c8 | %98
 B4 d4 | A8 | B4 c4 | d6 c2 | A8- | A8 | B4 c4 | B4 A4- | A4 G4 | A4 F4 | G4 E4 | D8 | A8 | %111
 (3:2:2d8 c4 | B6 c2 | d4 B2 c2 | A8 | B8 |] %116
V:3
 E8 | G8 | F4 A4- | A4 D4- | D4 F4 | E8 | D8 | d4 d4- | d4 ^c4 | d4 B4 | G4 A4- | A4 G4 | F8 | C8 | %14
 E4 F4 | D8 | C8 | z4 c4 | c8 | A4 F4- | F4 D4 | _E8 | D6 E2 | F2 G2 A4- | A4 G4- | G4 D4 | F4 G4 | %27
 E8 | D4 z4 | A6 B2 | c4 (3:2:2A4 F2 | G8 | !fermata!F8- | F8 | F8 | E8 | F8 | D8 | z4 C4 | D8 | %40
 G8 | E4 A4 | G4 F4 | E8 | D8 | z4 d4- | d2 c2 A4 | B4 c4- | c4 A4 | D4 F4 | E8 | D8- | D8 | z8 | %54
 F8 | G8 | A8 | D8 | C4 F4- | F2 E2 F4 | G4 A4 | F8 | E8 || c8- | c8 | A8 | e8- | e8 | A6 B2 | %69
 c4 d4- | d4 c4 | B8 | A4 F4 | D4 F4 | E8 | D8 | G8- | G8 | B4 c4 | A8 | G8 | (3:2:2E8 F4 | %82
 G4 A4- | A8 | A4 F4 | E8 | D8 | G4 F4 | E8 | D8 | F8 | D8 | F8 | G4 A4- | A4 G4- | G4 F4 | E8 | %97
 E4 F4 | G4 A4 | F8 | E8 | D8 | F8 | (3:2:2D8 E4 | F4 G4- | G4 F4- | F4 E4 | D8 | C8 | F8 | D8 | %111
 z4 F4 | G8 | A4 G4 | F8 | E8 |] %116
V:4
 E,8 | C,8 | D,8 | F,6 G,2 | A,6 B,2 | C2 B,2 G,4 | F,4 A,4 | D,8 | A,8 | D,8 | E,4 D,4- | %11
 D,4 E,2 C,2 | D,8 | z4 G,4- | G,4 A,4 | F,6 E,2 | G,8 | C,8 | F,8 | F,4 A,4- | A,4 F,4 | %21
 G,4 _B,4- | B,2 A,2 F,4 | A,4 D,4- | D,4 E,4 | C,4 z4 | D,8 | A,,8 | F,4 D,4 | A,,8 | A,4 F,4 | %31
 C,8 | A,8 | !fermata!F,8 | D,8 | C,8 | D,8 | F,8 | C,4 G,4 | F,8 | z8 | z8 | C,4 D,4 | A,,8 | %44
 A,4 F,4 | D,8 | F,8 | E,4 C,4- | C,4 D,4 | A,4 D,4 | A,,8 | F,6 G,2 | A,6 G,2 | E,8 | D,8 | %55
 _B,,8 | A,,4 D,4 | A,4 F,4 | E,4 D,4 | z4 D,4 | C,8 | D,8 | G,8 || C,8 | F,8- | F,8 | C,8- | C,8 | %68
 D,8 | A,4 G,4- | G,4 A,4 | E,8 | F,4 D,4 | A,4 A,4- | A,4 G,4 | A,4 F,4 | C,8 | z8 | E,4 C,4 | %79
 D,8 | E,4 C,4- | C,4 E,4- | E,4 D,4- | D,4 A,,4- | A,,4 A,4- | A,4 G,4 | A,4 F,4 | C,4 D,4 | %88
 A,,8 | F,8 | A,8- | A,8 | D,8 | C,4 A,,4 | D,4 E,4 | C,4 D,4 | A,,8 | z4 A,3 G, | E,4 D,4- | %99
 D,4 D,4 | G,8 | F,8 | D,8 | F,8 | D,4 C,4 | z4 D,4- | D,4 E,4 | F,8 | E,4 G,4 | A,8 | F,8 | D,8 | %112
 z4 E,4 | D,4 E,2 C,2 | D,8 | G,8 |] %116

